X: 1
T:Polonais fr Sexdrega
M:3/4
R:Polonaise
R:Polska
N:Yorkshire Dales Scandy weekend, June '99; workshop tunes
O:Sweden
Z:photocopies from Suzanne Lind \& Louise Schultz
K:D
V:1
DD/F/ EE/F/ D2 | AA/c/ BB/c/ A2 | \
d>(c d)uf ed | (c/d/)c/B/ (A/B/A/G/) FE|\
DD/F/ EE/F/ D2 | AA/c/ BB/c/ A2 |
d>(c d)uf ed | (c/d/)e/c/ d2 z2 ::\
(f/g/)f/e/ dc B2 | (e/f/)e/d/ cB A>(A | \
B)B/d/ (cA) BG| A2 A4 |
Ad (A/B/)A/G/ FD| EG (E/F/)E/D/ B,A,| \
(D/E/)F/G/ (A/B/)c/d/ (e/f/)(g/e/)| (f/e/)d/c/ d2 z2:|
V:2
DD/D/ DD/D/ D2| A,2B,2C2 | \
D>(E F)uA GF| (E/F/)E/D/ (C/D/)C/B,/ A,C|\
DD/D/ DD/D/ D2 | A,2 B,2 C2 | \
D>(EF)uA GF | (E/F/)G/E/ F2z2 ::\
(d/e/)d/c/ BA G2 | (c/d/)c/B/ AG F>(F |\
G)G/B/ (AF) GE | C2C4 |\
FA (F/G/)F/E/ DF | GG (G/A/)G/F/ GG | \
(F/G/)A/B/ (c/d/)e/f/ (g/a/)(b/g/)| (a/g/)f/e/ d2 z2 :|
